!!!!SEGMENT: pl-wtm--iii-41-764--001-001_rozycki-ludomir--deux-nocturnes-op-30-nocturne-i.krn
!!!cenid: 19xx:137
!!!COM: Różycki, Ludomir
!!!COM-rismID: pe50045573
!!!CDT: 1883-1953
!!!CNT: Polish
!!!GTL: Deux Nocturnes op. 30
!!!OTL: Nocturne I.
!!!OMV: 001
!!!PDT: 1924
!!!AGN: Secular; Nocturne
!!!YEC: Copyright 2022 Narodowy Instytut Fryderyka Chopina (https://polishscores.org)
!!!YEM: License CC-BY-4.0 (https://creativecommons.org/licenses/by/4.0)
!!!SMS-siglum: PL-Wtm
!!!SMS-shelfmark: III.41.764
!!!SMS-variant:
!!!SMS-altvar:
!!!SMS-shelfwork: 001-001 G
!!!NIFC-rismSourceID: 1001137834
!!!NIFC-rismChildID: 1001137876
!!!NIFC-islandoraID: pl-wtm:21407
!!!URL-pdf-islandora: https://repozytorium.nifc.pl/islandora/object/pl-wtm%3A21407/datastream/PDF/view
!!!URL-scan: https://polish.musicsources.pl/pl/lokalizacje/galeria/druki-muzyczne/17632/3 @EN{Scan on Polish Music Sources Website} @PL{Skany w portalu Dziedzictwo Muzyki Polskiej w otwartym dostępie}
!!!IIIF:
!!!ONB-nifc: UWAGA: proszę przygotować partyturę z głosów (partia skrzypiec z dedykowanego jej zapisu a nie partii przypominającej dla fortepianu)
!!!AIN: 1 piano 1 violn
!!!key: D
**kern	**kern	**dynam	**kern	**dynam
*part2	*part2	*part2	*part1	*part1
*staff3	*staff2	*	*staff1	*
*I"Piano.	*I"Piano.	*	*I"Violine.	*
*I'[pf]	*I'[pf]	*	*I'[vl]	*
*ICklav	*ICklav	*	*ICstr	*
*Ipiano	*Ipiano	*	*Ivioln	*
*clefF4	*clefG2	*	*clefG2	*
*k[f#c#]	*k[f#c#]	*	*k[f#c#]	*
*D:	*D:	*	*D:	*
*M4/4	*M4/4	*	*M4/4	*
*met(c)	*met(c)	*	*met(c)	*
=1	=1	=1	=1	=1
!	!LO:TX:B:a:t=Andante. M.M. [quarter] =	!LO:DY:t=p molto legato sempre pianissimo è dolce	!LO:TX:a:B:t=Andante.	!
2g\	2g~>/ 2b	p	(8dd\L	p
.	.	.	8ee\J	<
.	.	.	[4ff#\)	.
2f#\	2g~>/ 2b	.	8ff#\]	[ >
.	.	.	(4aa\	.
.	.	.	[8ff#\)	]
=2	=2	=2	=2	=2
2e\	2g~>/ 2b	.	8ff#\L]	<
.	.	.	(16dd\L	.
.	.	.	16ee\JJ	.
.	.	.	8.ff#\L	[ >
.	.	.	16dd\Jk)	.
2d\	2g~>/ 2b	.	2b\	]
=3	=3	=3	=3	=3
2c#\	2e~>/ 2g 2b	.	(8cc#\L	<
.	.	.	8dd\J	.
.	.	.	[4ee\)	.
2B\	2e~>/ 2g 2b	.	8ee\]	.
.	.	.	(4ff#\	.
.	.	.	8gg\)	.
=4	=4	=4	=4	=4
*	*^	*	*	*
1A 1e	1g 1gg	(>2dd\	.	(2aa\	.
.	.	2cc#\)	.	2bb\)	[
*	*v	*v	*	*	*
=5	=5	=5	=5	=5
*^	*	*	*	*
1G 1g	(>2d\	1b 1ee	.	2ccc#\	.
.	2c#\)	.	.	(4bb\	.
.	.	.	.	4ccc#\)	.
*v	*v	*	*	*	*
!	!	!	!LO:LB:g=original	!
=6	=6	=6	=6	=6
2F#\ 2d 2f#	2a\ 2dd	.	(4.bb\	>
.	.	.	8aa\)	.
2Fn\ 2B 2fn	2g#X\ 2dd	.	2dd\	]
!LO:LB:g=original	!	!	!	!
=7	=7	=7	=7	=7
2E\ 2B 2e	2gn/ 2b	.	(4.gg\	>
.	.	.	8b\)	]
!	!	!	!LO:TUP:a	!
2D\ 2B	2e/ 2g 2b	.	6b\	<
.	.	.	6cc#\	.
.	.	.	6dd\	.
=8	=8	=8	=8	=8
*^	*	*	*	*
2B/	(4.C#\	2e/ 2g 2b 2ee	.	2ee\	.
.	8BB\)	.	.	.	.
2ryy	(8BB/	2G/ 2d 2f#	.	2ff#\	[
.	4C#/	.	.	.	.
.	8BB/)	.	.	.	.
=9	=9	=9	=9	=9	=9
*	*	*^	*	*	*
1D	(4.BB\	(8d/L	1D 1d	mf	2aa\	.
.	.	8e/J	.	.	.	.
.	.	[4f#/	.	.	.	.
.	8AA\	.	.	.	.	.
.	[2DD\)	8f#/]	.	.	(8dd\L	.
.	.	4a/	.	.	8ee\J	.
.	.	.	.	.	[4ff#\)	.
.	.	[8f#/	.	.	.	.
=10	=10	=10	=10	=10	=10	=10
4.E/	1DD_	8f#/L]	1G 1B	.	8ff#\]	.
.	.	16d/L	.	.	(4aa\	.
.	.	16e/JJ	.	.	.	.
.	.	8f#/L	.	.	.	.
8BB/	.	8d/J	.	.	[8ff#\)	.
*Xbrackettup	*	*	*	*	*	*
6BB~/	.	2B/)	.	.	8ff#\L]	.
.	.	.	.	.	(16dd\L	.
6C#~/	.	.	.	.	.	.
.	.	.	.	.	16ee\JJ	.
.	.	.	.	.	8ff#\L	.
6D~/	.	.	.	.	.	.
.	.	.	.	.	8dd\J)	.
=11	=11	=11	=11	=11	=11	=11
!	!	!	!	!LO:HP:t=crescendo poco a poco	!	!
(2E/	1DD]	(8c#/L	1G 1B	<	2b\	.
.	.	8d/J	.	.	.	.
.	.	[<4e/	.	.	.	.
2BB/)	.	8e/]	.	.	((8cc#\L	.
.	.	4f#/	.	.	8dd\J	.
.	.	.	.	.	[4ee\)	.
.	.	8g/	.	.	.	.
!LO:LB:g=original	!	!	!	!	!LO:LB:g=original	!
=12	=12	=12	=12	=12	=12	=12
(8AA/L	1DD	(2a:/	1G: 1c#:	.	4ee\_	.
8BB/J	.	.	.	.	.	.
!	!	!	!	!	!LO:TUP:a	!
[>4C#/	.	.	.	.	12ee\L]	.
.	.	.	.	.	12ff#\	.
.	.	.	.	.	12gg\J	.
8C#/]	.	2b/))	.	.	2aa\)	.
4D/	.	.	.	.	.	.
8E/)	.	.	.	.	.	.
*v	*v	*	*	*	*	*
=13	=13	=13	=13	=13	=13
1DD: 1AA: 1G:	(4.cc#:/	1d:	f >	2ddd\	.
.	8b/	.	.	.	.
!	!	!	!	!LO:TUP:a:problem:klamra łukowa	!
.	8b/	.	.	6ee\	.
.	4cc#/	.	.	.	.
.	.	.	.	6ff#\	.
.	.	.	.	[6gg\	.
.	8b/	.	]]	.	.
=14	=14	=14	=14	=14	=14
*^	*	*	*	*	*
(2F#:/	1DD: 1AA:	4.b/	1d	.	2gg\]	.
.	.	8a/	.	.	.	.
2Fn/)	.	2d/)	.	.	(4.bb\	.
.	.	.	.	.	8aa\)	.
=15	=15	=15	=15	=15	=15	=15
([2E:/	1DD: 1AA:	(4.g/	1B	.	2dd\	.
.	.	8B/	.	.	.	.
*	*	*Xbrackettup	*	*	*	*
3E/]	.	6B/	.	.	(4.gg\	.
.	.	6c#/	.	.	.	.
6D/	.	6d/	.	.	.	.
.	.	.	.	.	8b\)	.
=16	=16	=16	=16	=16	=16	=16
!	!	!	!	!	!LO:TUP:a:problem:klamra łukowa	!
2C#/	1DD 1AA	2e/	1G	.	6b\	.
.	.	.	.	.	6cc#\	.
.	.	.	.	.	6dd\	.
6C#/	.	2A/)	.	.	2ee\	.
6D/	.	.	.	.	.	.
6E/)	.	.	.	.	.	.
*v	*v	*	*	*	*	*
*	*v	*v	*	*	*
!LO:LB:g=original	!	!	!	!
*kcancel	*kcancel	*	*kcancel	*
=17||	=17||	=17||	=17||	=17||
*k[]	*k[]	*	*k[]	*
*^	*	*	*	*
*ped	*	*	*	*	*
!	!	!LO:TX:a:B:t=Poco più mosso.	!	!LO:TX:a:B:t=Poco più mosso.	!
[1F	2DD\ 2GG	1B~> 1d 1a	pp	2dd\	<
.	6DD\ 6GG	.	.	(4ee\	.
.	6DD\ 6GG	.	.	.	.
.	.	.	.	4ff\)	[[
.	6DD\ 6GG	.	.	.	.
=18	=18	=18	=18	=18	=18
*	*	*^	*	*	*
2F/]	1DD 1GG	2B/ 2a	(8d\L	.	2aa\	>
.	.	.	16d\L	.	.	.
.	.	.	16e\JJ	.	.	.
.	.	.	8f\L	.	.	.
.	.	.	8d\J)	.	.	.
(4A/	.	2B-X/ 2c#X 2e	2ryy	.	2ee\	]]
4G/)	.	.	.	.	.	.
*	*	*v	*v	*	*	*
!	!	!	!	!LO:LB:g=original	!
=19	=19	=19	=19	=19	=19
[1F	2DD\ 2GG	[1B [>1d [1a	.	2dd\	<
.	6DD\ 6GG	.	.	(4ee\	.
.	6DD\ 6GG	.	.	.	.
.	.	.	.	4ff\)	[[
.	6DD\ 6GG	.	.	.	.
=20	=20	=20	=20	=20	=20
2F/]	1DD 1GG	2B/] 2d] 2a]	.	(8aa\L	>
.	.	.	.	16dd\L	.
.	.	.	.	16ee\JJ	.
.	.	.	.	8ff\L	]
.	.	.	.	8dd\J)	.
!	!	!	!LO:HP:t=poco cresc.	!	!LO:HP:t=poco cresc.
(4A/	.	2B-X/ 2c#X 2e	<	8ee^\L	<
.	.	.	.	8ff^\	.
4G/)	.	.	.	8gg^\	.
.	.	.	.	8aa^\J	.
=21	=21	=21	=21	=21	=21
[1E	2CC\ 2GG	[1B-X [>1d [1b-X	sfz > ]]	2bb-X\	<
.	6CC\ 6GG	.	.	(4ccc\	.
.	6CC\ 6GG	.	.	.	.
.	.	.	.	4ddd\)	.
.	6CC\ 6GG	.	.	.	.
!LO:PB:g=original	!	!	!	!	!
=22	=22	=22	=22	=22	=22
*	*	*^	*	*	*
1E]	3CC\ 3GG	2b-/]	1B-] 1d]	.	1eee	.
.	[6CC\ [>6GG	.	.	.	.	.
.	6CC\] 6GG]	(8g/L	.	.	.	.
.	.	16g/L	.	.	.	.
.	3CC\ 3GG	.	.	.	.	.
.	.	16a/JJ	.	.	.	.
.	.	8b-X/L	.	.	.	.
.	.	8g/J)	.	.	.	.
=23	=23	=23	=23	=23	=23	=23
(2E:/	1BBB: 1BB:	N[<2g#X/	1A [>1bn	.	([2fff#X\	.
*	*	*	*	*	*Xbrackettup	*
!	!	!	!	!	!LO:TUP:a	!
4F#X/	.	4a/	.	.	6fff#\]	.
.	.	.	.	.	6ggg#X\	.
4E/	.	4g#/N]	.	.	.	.
.	.	.	.	.	6aaa\)	.
*v	*v	*	*	*	*	*
=24	=24	=24	=24	=24	=24
1EE) 1BB 1D	(<2f#X/	1G#X: 1b:]	.	1bbb	[[
.	2fn/)	.	.	.	.
=25	=25	=25	=25	=25	=25
*^	*	*	*	*	*
1E-X	[1EE-X [1C	(<2f~</	[1A-X [>1cc	.	2cccc\	>
.	.	4a-X~</	.	.	2eee-X\	.
.	.	4g~</	.	.	.	.
=26	=26	=26	=26	=26	=26	=26
(2F/	1EE-] 1C]	2f/	1A-] 1cc]	.	2aaa-X\	.
4A-X/	.	2e-X/)	.	.	2ccc\	]]
4G/)	.	.	.	.	.	.
!	!	!	!	!	!LO:LB:g=original	!
*v	*v	*	*	*	*	*
*	*v	*v	*	*	*
*	*clefF4	*	*	*
=27	=27	=27	=27	=27
[1EE-X [1AA-X	(1F 1A-X 1d-X	pp	2fff\	.
.	.	.	(4aaa-X\	.
.	.	.	4ggg\)	.
=28	=28	=28	=28	=28
1EE-] 1AA-]	1E-X) 1A-X 1c	.	2fff\	.
.	.	.	2eee-X\	.
!LO:LB:g=original	!	!	!	!
=29	=29	=29	=29	=29
(2EEE-X/ 2EE-X	[1E-X [1A-X [1c	.	2ccc\	.
4AAA-X/ 4AA-X	.	.	2ee-X\	.
4GGG/ 4GG	.	.	.	.
=30	=30	=30	=30	=30
2FFF/ 2FF	1E-] 1A-] 1c]	.	2aa-X\	.
2EEE-X/) 2EE-X	.	.	2cc\	.
=31	=31	=31	=31	=31
[1AAA-X [>1EE-X [1AA-X	([1C [1G-X 1B-X	ppp	2ff\	.
.	.	.	(4aa-X\	.
.	.	.	4gg-X\)	.
=32	=32	=32	=32	=32
1AAA-] 1EE-] 1AA-]	1C]) 1G-] 1c	.	(2ff\	.
.	.	.	2ee-X\)	.
*	*clefG2	*	*	*
=33||	=33||	=33||	=33||	=33||
*k[b-e-a-d-g-]	*k[b-e-a-d-g-]	*	*k[b-e-a-d-g-]	*
*M2/2	*M2/2	*	*M2/2	*
*met(c|)	*met(c|)	*	*met(c|)	*
*ped	*	*	*	*
!	!LO:TX:a:B:t=Più mosso.	!	!LO:TX:a:B:t=Più mosso.	!
N(6DD-/	2r	.	2b-\	.
6AA-/	.	.	.	.
6F\	.	.	.	.
!	!LO:TUP:b	!	!	!
2r	6A-/	.	(4dd-\	.
.	6d-/	.	.	.
.	.	.	4cc\)	.
.	6b-/	.	.	.
*Xped	*	*	*	*
=34	=34	=34	=34	=34
*ped	*	*	*	*
!	!LO:TUP:b	!	!	!
4G-\	6c/	.	(2b-\	.
.	6e-/	.	.	.
4r	.	.	.	.
.	6b-/	.	.	.
!	!LO:TUP:b	!	!	!
4AA-/	6e-/	.	2a-/)	.
.	6a-/	.	.	.
4r	.	.	.	.
.	6cc\N)	.	.	.
*Xped	*	*	*	*
!	!	!	!LO:LB:g=original	!
=35	=35	=35	=35	=35
*ped	*	*	*	*
!LO:TUP:b	!	!	!	!
N(6DD-/	2r	.	2ff\	.
6AA-/	.	.	.	.
6F\	.	.	.	.
!	!LO:TUP:b	!	!	!
2r	6d-/	.	(4aa-\	.
.	6a-/	.	.	.
.	.	.	4gg-\)	.
.	6dd-\	.	.	.
!LO:LB:g=original	!	!	!	!
=36	=36	=36	=36	=36
*	*^	*	*	*
4G-\	1ee-N)	8r	.	(2ff\	.
.	.	(8f\L	.	.	.
4r	.	8g-\	.	.	.
.	.	8dd-\J)	.	.	.
!	!	!LO:TUP:b:problem:klamra łukowa	!	!	!
4AA-/	.	6e-\	.	2ee-\)	.
.	.	6g-\	.	.	.
4r	.	.	.	.	.
.	.	6cc\	.	.	.
=37	=37	=37	=37	=37	=37
!LO:TUP:b	!	!	!	!	!
(6DD-/	(1ff:	(2b-:\	.	(2.bb-\	.
6AA-/	.	.	.	.	.
6F\	.	.	.	.	.
!LO:TUP:b	!	!	!	!	!
6AA-/	.	4dd-\	.	.	.
6F\	.	.	.	.	.
.	.	4cc\	.	4aa-\)	.
[6d-\	.	.	.	.	.
=38	=38	=38	=38	=38	=38
!LO:TUP:b	!	!	!	!	!
6d-\]	1gg-	2b-\	.	(2.gg-\	.
6A-\	.	.	.	.	.
6D-\	.	.	.	.	.
!LO:TUP:b	!	!	!	!	!
6A-\	.	2a-\)	.	.	.
6D-\	.	.	.	.	.
.	.	.	.	4ff\)	.
6AA-/)	.	.	.	.	.
=39	=39	=39	=39	=39	=39
!LO:TUP:b	!	!	!	!	!
(6DD-/	[1aa-:)	(2f:\	.	(2.ff\	.
6AA-/	.	.	.	.	.
6F\	.	.	.	.	.
!LO:TUP:b	!	!	!	!	!
6AA-/	.	4a-\	.	.	.
6F\	.	.	.	.	.
.	.	4g-\	.	4ee-\)	.
6d-\	.	.	.	.	.
=40	=40	=40	=40	=40	=40
*^	*	*	*	*	*
1G-	6G-\	1aa-]	2f\	.	(2dd-\	.
.	6A-\	.	.	.	.	.
.	6B-\	.	.	.	.	.
.	6c\	.	2e-\)	.	2cc\)	.
.	6d-\	.	.	.	.	.
.	6e-\)	.	.	.	.	.
*v	*v	*	*	*	*	*
*	*v	*v	*	*	*
!LO:LB:g=original	!	!	!	!
=41	=41	=41	=41	=41
!LO:TUP:b	!	!	!	!
N(6DD-/	2r	.	2b-\	.
6AA-/	.	.	.	.
6F\	.	.	.	.
!	!LO:TUP:b	!	!	!
2r	6A-/	.	(4dd-\	.
.	6d-/	.	.	.
.	.	.	4cc\)	.
.	6b-\	.	.	.
=42	=42	=42	=42	=42
!	!LO:TUP:b	!	!	!
4G-\	6c/	.	(2b-\	.
.	6e-/	.	.	.
4r	.	.	.	.
.	6b-\	.	.	.
!	!LO:TUP:b	!	!	!
4AA-/	6e-/	.	2a-/)	.
.	6a-/	.	.	.
4r	.	.	.	.
.	6cc\N)	.	.	.
=43	=43	=43	=43	=43
*Xtuplet	*	*	*	*
N(6DD-/	2r	.	2ff\	.
6AA-/	.	.	.	.
6F\	.	.	.	.
*	*Xtuplet	*	*	*
2r	6d-/	.	(4aa-\	.
.	6a-/	.	.	.
.	.	.	4gg-\)	.
.	6dd-\	.	.	.
!	!	!	!LO:LB:g=original	!
=44	=44	=44	=44	=44
*	*^	*	*	*
*ped	*	*	*	*	*
4G-\	1ee-N)	8r	.	(2ff\	.
.	.	(8f\L	.	.	.
4r	.	8g-\	.	.	.
.	.	8dd-\J)	.	.	.
*	*	*tuplet	*	*	*
!	!	!LO:TUP:b:problem:klamra łukowa	!	!	!
4AA-/	.	6e-\	.	2ee-\)	.
.	.	6g-\	.	.	.
4r	.	.	.	.	.
.	.	6cc\	.	.	.
*Xped	*	*	*	*	*
=45	=45	=45	=45	=45	=45
*ped	*	*	*	*	*
*tuplet	*	*	*	*	*
!LO:TUP:b	!	!	!	!	!
(6DD-/	(1ff	(2b-\	.	(2.bb-\	.
6AA-/	.	.	.	.	.
6F\	.	.	.	.	.
6AA-/	.	4dd-\	.	.	.
6F\	.	.	.	.	.
.	.	4cc\	.	4aa-\)	.
[6d-\	.	.	.	.	.
!LO:LB:g=original	!	!	!	!	!
=46	=46	=46	=46	=46	=46
6d-\]	1gg-	2b-\	.	(2.gg-\	.
6A-\	.	.	.	.	.
6D-\	.	.	.	.	.
6A-\	.	2a-\)	.	.	.
6D-\	.	.	.	.	.
.	.	.	.	4ff\)	.
6AA-/)	.	.	.	.	.
*Xped	*	*	*	*	*
=47	=47	=47	=47	=47	=47
*ped	*	*	*	*	*
!LO:TUP:b	!	!	!	!	!
(6DD-/	[1aa-)	(2f\	.	(2.ff\	.
6AA-/	.	.	.	.	.
6F\	.	.	.	.	.
6AA-/	.	4a-\	.	.	.
6F\	.	.	.	.	.
.	.	4g-\	.	4ee-\)	.
6d-\	.	.	.	.	.
=48	=48	=48	=48	=48	=48
*^	*	*	*	*	*
1G-	6G-\	1aa-]	2f\	.	(2dd-\	.
.	6A-\	.	.	.	.	.
.	6B-\	.	.	.	.	.
.	6c\	.	2e-\)	.	2cc\)	.
.	6d-\	.	.	.	.	.
.	6e-\)	.	.	.	.	.
*v	*v	*	*	*	*	*
*	*v	*v	*	*	*
=49	=49	=49	=49	=49
[1BB- [1F	(>[1B- [1d- [1f [1b-	.	2b-\	.
.	.	.	(4dd-\	.
.	.	.	4cc\)	.
=50	=50	=50	=50	=50
2BB-\] 2F]	2B-/] 2d-] 2f] 2b-]	.	(2b-\	.
2FF/ 2F	2A-/) 2c 2f 2a-	.	2a-/)	.
=51	=51	=51	=51	=51
[1BB- [1F	(>[1B- [1d- [1f [1b-	.	2b-\	.
.	.	.	(4dd-\	.
.	.	.	4cc\)	.
=52	=52	=52	=52	=52
2BB-\] 2F]	2B-/] 2d-] 2f] 2b-]	.	(2b-\	.
2FF/ 2F	2A-/) 2c 2f 2a-	.	2a-/)	.
!LO:PB:g=original	!	!	!LO:LB:g=original	!
=53	=53	=53	=53	=53
*ped	*	*	*	*
(4FF/ 4C 4F	(4An/ 4cn 4f 4an	.	1an	.
2FF/ 2C 2F	2A/ 2c 2f 2a	.	.	.
4FF/) 4C 4F	4A/) 4c 4f 4a	.	.	.
*Xped	*	*	*	*
=54	=54	=54	=54	=54
*ped	*	*	*	*
1EEn 1AAn 1C#X 1Gn	1An 1c#X 1gn 1an	.	(8an/L	<
.	.	.	8bn/J	.
.	.	.	[4cc#X\)	.
.	.	.	8cc#\]	.
.	.	.	(4een\	.
.	.	.	8cc#\)	.
*Xped	*	*	*	*
=55	=55	=55	=55	=55
*ped	*	*	*	*
(4FFn/ 4Cn 4Fn	(4An/ 4cn 4f 4an	.	(1aan	[ >
2FF/ 2C 2F	2A/ 2c 2f 2a	.	.	.
4FF/) 4C 4F	4A/) 4c 4f 4a	.	.	.
*Xped	*	*	*	*
=56	=56	=56	=56	=56
*ped	*	*	*	*
1EE- 1AA- 1C 1G-	1B- 1c 1g- 1b-	.	2bb-\)	.
!	!	!	!	!LO:HP:t=dimin. poco a poco
.	.	.	(8gg-\L	] >
.	.	.	8aa-X\J	.
.	.	.	[4bb-\)	.
=57	=57	=57	=57	=57
*^	*	*	*	*
2r	[1GGGn	2r	.	2bb-\]	.
[<2GGn/ [2Dn [2Gn	.	[2Bn/ [2dn [2gn [2bn	.	[2bbn\	.
=58	=58	=58	=58	=58	=58
1GG] 1D] 1G]	1GGG]	1B] 1d] 1g] 1b]	ppp	1bb]	ppp
*v	*v	*	*	*	*
*kcancel	*kcancel	*	*kcancel	*
=59||	=59||	=59||	=59||	=59||
*clefG2	*	*	*	*
*k[f#c#]	*k[f#c#]	*	*k[f#c#]	*
*M4/4	*M4/4	*	*M4/4	*
*met(c)	*met(c)	*	*met(c)	*
*	*tremolo	*	*	*
!LO:TX:t=P:problem: klucz zapisano po metrum	!	!	!LO:TX:a:B:t=Tempo I.	!
(8g/ 8b	(32dd\LLL	.	8dd\L	.
.	32ddd\	.	.	.
.	32dd\	.	.	.
.	32ddd\	.	.	.
4g/ 4b	32dd\	.	8ee\J	.
.	32ddd\	.	.	.
.	32dd\	.	.	.
.	32ddd\	.	.	.
.	32dd\	.	[4ff#\	.
.	32ddd\	.	.	.
.	32dd\	.	.	.
.	32ddd\	.	.	.
[8g/ [8b	32dd\	.	.	.
.	32ddd\	.	.	.
.	32dd\	.	.	.
.	32ddd\JJJ)	.	.	.
8g/] 8b]	(32dd\LLL	.	8ff#\]	.
.	32ddd\	.	.	.
.	32dd\	.	.	.
.	32ddd\	.	.	.
!	!	!	!LO:TX:a:i:t=sempre	!
4f#/ 4g 4b	32dd\	.	4aa\	.
.	32ddd\	.	.	.
.	32dd\	.	.	.
.	32ddd\	.	.	.
.	32dd\	.	.	.
.	32ddd\	.	.	.
.	32dd\	.	.	.
.	32ddd\	.	.	.
8f#/) 8g 8b	32dd\	.	[8ff#\	.
.	32ddd\	.	.	.
.	32dd\	.	.	.
.	32ddd\JJJ)	.	.	.
!LO:LB:g=original	!	!	!LO:LB:g=original	!
=60	=60	=60	=60	=60
!	!	!	!LO:TX:a:i:t=tranqiollo è dolce	!
(8e/ 8g 8b	32dd\LLL	.	8ff#\L]	<
.	32ddd\	.	.	.
.	32dd\	.	.	.
.	32ddd\	.	.	.
4e/ 4g 4b	32dd\	.	(16dd\L	.
.	32ddd\	.	.	.
.	32dd\	.	16ee\JJ	.
.	32ddd\	.	.	.
.	32dd\	.	8.ff#\L	[ >
.	32ddd\	.	.	.
.	32dd\	.	.	.
.	32ddd\	.	.	.
[8e/ [8g [8b	32dd\	.	.	.
.	32ddd\	.	.	.
.	32dd\	.	16dd\Jk)	.
.	32ddd\JJJ	.	.	.
8e/] 8g] 8b]	32dd\LLL	.	2b\	]
.	32ddd\	.	.	.
.	32dd\	.	.	.
.	32ddd\	.	.	.
4d/ 4g 4b	32dd\	.	.	.
.	32ddd\	.	.	.
.	32dd\	.	.	.
.	32ddd\	.	.	.
.	32dd\	.	.	.
.	32ddd\	.	.	.
.	32dd\	.	.	.
.	32ddd\	.	.	.
8d/) 8g 8b	32dd\	.	.	.
.	32ddd\	.	.	.
.	32dd\	.	.	.
.	32ddd\JJJ	.	.	.
=61	=61	=61	=61	=61
*	*^	*	*	*
(8c#/ 8e 8g 8b	1gg 1bb	32ee\LLL	.	8cc#\L	<
.	.	32eee\	.	.	.
.	.	32ee\	.	.	.
.	.	32eee\	.	.	.
4c#/ 4e 4g 4b	.	32ee\	.	8dd\J	.
.	.	32eee\	.	.	.
.	.	32ee\	.	.	.
.	.	32eee\	.	.	.
.	.	32ee\	.	[4ee\	.
.	.	32eee\	.	.	.
.	.	32ee\	.	.	.
.	.	32eee\	.	.	.
8c#/) 8e 8g 8b	.	32ee\	.	.	.
.	.	32eee\	.	.	.
.	.	32ee\	.	.	.
.	.	32eee\JJJ	.	.	.
(8B/ 8e 8g 8b	.	32ee\LLL	.	8ee\]	.
.	.	32eee\	.	.	.
.	.	32ee\	.	.	.
.	.	32eee\	.	.	.
4B/ 4e 4g 4b	.	32ee\	.	4ff#\	.
.	.	32eee\	.	.	.
.	.	32ee\	.	.	.
.	.	32eee\	.	.	.
.	.	32ee\	.	.	.
.	.	32eee\	.	.	.
.	.	32ee\	.	.	.
.	.	32eee\	.	.	.
8B/) 8e 8g 8b	.	32ee\	.	8gg\	.
.	.	32eee\	.	.	.
.	.	32ee\	.	.	.
.	.	32eee\JJJ	.	.	.
=62	=62	=62	=62	=62	=62
*^	*	*	*	*	*
(2dd/	(8A\ 8e 8g	1gg 1aa	32ee\LLL	.	(2aa\	.
.	.	.	32eee\	.	.	.
.	.	.	32ee\	.	.	.
.	.	.	32eee\	.	.	.
.	4A\ 4e 4g	.	32ee\	.	.	.
.	.	.	32eee\	.	.	.
.	.	.	32ee\	.	.	.
.	.	.	32eee\	.	.	.
.	.	.	32ee\	.	.	.
.	.	.	32eee\	.	.	.
.	.	.	32ee\	.	.	.
.	.	.	32eee\	.	.	.
.	[8A\ [8e [8g	.	32ee\	.	.	.
.	.	.	32eee\	.	.	.
.	.	.	32ee\	.	.	.
.	.	.	32eee\JJJ	.	.	.
2cc#/)	8A\] 8e] 8g]	.	32ee\LLL	.	2bb\)	[
.	.	.	32eee\	.	.	.
.	.	.	32ee\	.	.	.
.	.	.	32eee\	.	.	.
.	4A\ 4e 4g	.	32ee\	.	.	.
.	.	.	32eee\	.	.	.
.	.	.	32ee\	.	.	.
.	.	.	32eee\	.	.	.
.	.	.	32ee\	.	.	.
.	.	.	32eee\	.	.	.
.	.	.	32ee\	.	.	.
.	.	.	32eee\	.	.	.
.	8A\) 8e 8g	.	32ee\	.	.	.
.	.	.	32eee\	.	.	.
.	.	.	32ee\	.	.	.
.	.	.	32eee\JJJ	.	.	.
*	*	*v	*v	*	*	*
=63	=63	=63	=63	=63	=63
(8c#/ 8e 8b	1G	(4.ff#\ 4.fff#	.	2ccc#\	.
4c#/ 4e 4b	.	.	.	.	.
4c#/ 4e 4b	.	[8ee\ [8eee	.	.	.
.	.	4ee\] 4eee]	.	(4bb\	.
4c#/ 4e 4b	.	.	.	.	.
.	.	12ee\L 12eee	.	4ccc#\)	.
.	.	12dd\ 12ddd	.	.	.
8c#/) 8e 8b	.	.	.	.	.
.	.	12cc#\J) 12ccc#	.	.	.
*clefF4	*	*	*	*	*
!LO:LB:g=original	!	!	!	!	!
=64	=64	=64	=64	=64	=64
*	*	*^	*	*	*
(8A/ 8d 8a	2F#\	(4ee\ 4eee	2ryy	.	(4.bb\	>
4A/ 4d 4a	.	.	.	.	.	.
!	!	!LO:TUP:a	!	!	!	!
.	.	12dd\L 12ddd	.	.	.	.
.	.	12aa\	.	.	.	.
8A/) 8d 8a	.	.	.	.	8aa\)	.
.	.	12ff#\J	.	.	.	.
2Fn\ 2B 2fn	2ryy	6dd/	2g#X\	.	2dd\	]]
.	.	6cc#/	.	.	.	.
.	.	6b/)	.	.	.	.
*	*	*v	*v	*	*	*
=65	=65	=65	=65	=65	=65
*	*^	*	*	*	*
2e/	(2E\	1B	(>8gn/ 8b	.	(4.gg\	>
.	.	.	4g/ 4b	.	.	.
.	.	.	8g/ 8b	.	8b\)	]
!	!	!	!	!	!LO:TUP:a:problem:klamra łukowa	!
2ryy	2D\)	.	8e/ 8g 8b	.	6b\	<
.	.	.	4e/ 4g 4b	.	.	.
.	.	.	.	.	6cc#\	.
.	.	.	.	.	6dd\	[[
.	.	.	8e/) 8g 8b	.	.	.
*v	*v	*v	*	*	*	*
!	!	!	!LO:LB:g=original	!
=66	=66	=66	=66	=66
*	*^	*	*	*
*	*	*^	*	*	*
(4.C#/	(6g/	2G\	2B/	.	(2ee\	.
.	6f#/	.	.	.	.	.
.	6e/	.	.	.	.	.
8BB/)	.	.	.	.	.	.
(8BB/	2d/)	2G\	2d\	.	2ff#\)	.
4C#/	.	.	.	.	.	.
8BB/)	.	.	.	.	.	.
=67	=67	=67	=67	=67	=67	=67
*^	*	*	*	*	*	*
2D/	(4.BB\	(8d/L	1F#	2ryy	.	2aa\	.
.	.	8e/J	.	.	.	.	.
.	.	[4f#/	.	.	.	.	.
.	8AA\	.	.	.	.	.	.
2D/	2DD\)	8f#/]	.	2F#\ 2d	.	(8dd\L	.
.	.	4a/	.	.	.	8ee\J	.
.	.	.	.	.	.	[4ff#\)	.
.	.	[8f#/	.	.	.	.	.
*	*	*	*v	*v	*	*	*
=68	=68	=68	=68	=68	=68	=68
(4.E/	[1DD	8f#/L]	1G 1B	.	8ff#\]	.
.	.	16d/L	.	.	(4aa\	.
.	.	16e/JJ	.	.	.	.
.	.	8.f#/L	.	.	.	.
8BB/)	.	.	.	.	[8ff#\)	.
.	.	16d/Jk	.	.	.	.
6BB~/	.	2B/)	.	.	8ff#\L]	.
.	.	.	.	.	(16dd\L	.
6C#~/	.	.	.	.	.	.
.	.	.	.	.	16ee\JJ	.
.	.	.	.	.	8.ff#\L	.
6D~/	.	.	.	.	.	.
.	.	.	.	.	16dd\Jk)	.
!LO:LB:g=original	!	!	!	!	!	!
=69	=69	=69	=69	=69	=69	=69
(2E/	1DD]	(8c#/L	1G 1B	.	2b\	.
.	.	8d/J	.	.	.	.
.	.	[4e/	.	.	.	.
2BB/)	.	8e/]	.	.	((8cc#\L	.
.	.	4f#/	.	.	8dd\J)	.
.	.	.	.	.	[4ee\	.
.	.	8g/	.	.	.	.
=70	=70	=70	=70	=70	=70	=70
(8AA/L	1DD	2a:/	1G: 1c#:	.	4ee\_	.
8BB/J	.	.	.	.	.	.
!	!	!	!	!	!LO:TUP:a	!
[4C#/	.	.	.	.	12ee\L]	.
.	.	.	.	.	12ff#\	.
.	.	.	.	.	12gg\J	.
8C#/]	.	2b/)	.	.	2aa\)	.
4D/	.	.	.	.	.	.
8E/)	.	.	.	.	.	.
*v	*v	*	*	*	*	*
=71	=71	=71	=71	=71	=71
1DD 1AA 1G	(4.cc#/	1d	.	2ddd\	.
.	8b/	.	.	.	.
!	!	!	!	!LO:TUP:a:problem:klamra łukowa	!
.	8b/	.	.	6ee\	.
.	4cc#/	.	.	.	.
.	.	.	.	6ff#\	.
.	.	.	.	[6gg\	.
.	8b/)	.	.	.	.
!	!	!	!	!LO:LB:g=original	!
=72	=72	=72	=72	=72	=72
*^	*	*	*	*	*
(2F#/	1DD 1AA	(4.b/	1d	.	2gg\]	.
.	.	8a/	.	.	.	.
2Fn/)	.	2d/)	.	.	(4.bb\	.
.	.	.	.	.	8aa\)	.
=73	=73	=73	=73	=73	=73	=73
[2E/	1DD 1AA	((4.g/	1B	.	2dd\	.
.	.	8B/)	.	.	.	.
!	!	!LO:TUP:a:problem:klamra łukowa	!	!	!	!
3E/]	.	6B/	.	.	(4.gg\	.
.	.	6c#/	.	.	.	.
6D/	.	6d/	.	.	.	.
.	.	.	.	.	8b\)	.
!LO:LB:g=original	!	!	!	!	!	!
=74	=74	=74	=74	=74	=74	=74
!	!	!	!	!	!LO:TUP:a:problem:klamra łukowa	!
2C#/	1DD 1AA	2e/	1G	.	6b\	.
.	.	.	.	.	6cc#\	.
.	.	.	.	.	6dd\	.
6C#~/	.	2A/)	.	.	2ee\	.
6D~/	.	.	.	.	.	.
6E~/	.	.	.	.	.	.
*v	*v	*	*	*	*	*
=75	=75	=75	=75	=75	=75
1DD 1AA 1Fn	(<2d/	1B 1a	.	(1ffn	.
.	4e/	.	.	.	.
.	4fn/)	.	.	.	.
=76	=76	=76	=76	=76	=76
1DD 1AA 1G	(<2f#X/	1c# 1a	.	1ff#X)	.
.	2e/)	.	.	.	.
=77	=77	=77	=77	=77	=77
1DD 1AA 1F#	8d/L	(>1A 1a	.	1aa	.
.	8e/J	.	.	.	.
.	[<4f#/	.	.	.	.
.	8f#/]	.	.	.	.
.	4a/	.	.	.	.
.	8f#/	.	.	.	.
*	*v	*v	*	*	*
=78	=78	=78	=78	=78
[1DD:: [>1AA:: [1F#::	[1A::) [>1d:: [1a::	.	(8dd\L	.
.	.	.	8ee\J	.
.	.	.	[4ff#\)	.
.	.	.	8ff#\]	.
.	.	.	(4aa\	.
.	.	.	[8ff#\)	.
=79	=79	=79	=79	=79
1DD] 1AA] 1F#]	1A] 1d] 1a]	.	1ff#;]	.
==	==	==	==	==
*-	*-	*-	*-	*-
!!!system-decoration: s1{(s2,s3)}
!!!RDF**kern: > = above
!!!RDF**kern: < = below
!!!RDF**kern: N = linked
!!!ENC: Andrzej Gręziak
!!!END: 2023-10-23
!!!EED: Jan Barakat
!!!EEV: 2023-11-13
